symbols/web/1x_mobiledata/materialsymbolsoutlined/1x_mobiledata_fill1_48px.svg

<svg xmlns="http://www.w3.org/2000/svg" height="48" width="48"><path d="M12.1 34V17.05H8v-3h7.1V34Zm9.75 0 6.35-10.65L22.55 14h3.5L30 20.5l3.75-6.5h3.45l-5.4 9.35L38 34h-3.45L30 26.2 25.35 34Z"/></svg>

<svg xmlns="http://www.w3.org/2000/svg" height="48" width="48"><path d="M12.1 34V17.05H8V14.05H15.1V34ZM21.85 34 28.2 23.35 22.55 14H26.05L30 20.5L33.75 14H37.2L31.8 23.35L38 34H34.55L30 26.2L25.35 34Z"/></svg>
